X:1
T:O God, Be Gracious to Me in Your Love
T:Tune: Orlando Gibbon's, 1623 Text under copyright; for copyrighted material see Psalter Hymnal 167
T:10 10 10 10 SONG 24 www.hymnary.org/text/o_god_be_gracious_to_me_in_your_love
T:O God, Be Gracious to Me in Your Love
T:This music is in the public domain. You may freely use this score for personal and congregational worship. If you reproduce the score, please credit Hymnary.org as the source. 
T:This music is in the public domain. You may freely use this score for personal and congregational worship. If you reproduce the score, please credit Hymnary.org as the source. 
Z:This music is in the public domain. You may freely use this score for personal and congregational worship. If you reproduce the score, please credit Hymnary.org as the source.
%%score ( 1 2 ) ( 3 4 )
L:1/8
M:4/4
K:F
V:1 treble nm="SOPRANO ALTO" snm="S. A."
V:2 treble 
V:3 bass nm="TENOR BASS" snm="T. B."
V:4 bass 
V:1
 z2 F2 F2 G2 | A3 A G2 F2 | E2 E2 D4 | z2 A2 A2 =B2 | c3 c =B2 A2 | A2 ^G2 A4 | z2 E2 E2 F2 | %7
 G3 E F2 F2 | G2 B2 A4 |1 z2 G2 c2 =B2 | A3 G F2 F2 | E2 E2 D4 |] %12
V:2
 x2 D2 D2 E2 | F3 F E2 D2 | D2 ^C2 D4 | x2 D2 E2 D2 | C3 E E2 CD | E2 E2 E4 | x2 =C2 C2 A,=B, | %7
 C3 C D2 C2 | B,2 B,2 C4 |1 x2 C2 E2 E2 | C3 B, C2 D2 | D2 ^C2 D4 |] %12
V:3
 z2 A,2 A,2 C2 | C3 C CB, A,2 | A,3 G, F,4 | z2 F,2 A,2 ^G,2 | A,3 A, ^G,2 A,2 | =B,2 B,2 ^C4 | %6
 z2 A,2 A,2 F,2 | E,3 G, B,2 F,2 | F,2 E,2 F,4 |1 z2 E,2 A,2 G,2 | F,3 E, F,2 A,2 | A,3 G, F,4 |] %12
V:4
 x2 D,2 D,2 C,2 | F,3 F, C,2 D,2 | A,,2 A,,2 D,4 | x2 D,2 C,2 =B,,2 | A,,3 A,, E,2 F,2 | %5
 E,2 E,2 A,,4 | x2 A,,2 A,,2 D,2 | C,3 C, B,,2 A,,2 | G,,2 G,,2 F,,4 |1 x2 C,2 A,,2 E,,2 | %10
 F,,3 G,, A,,2 D,2 | A,,2 A,,2 D,4 |] %12

